svgs/solid/unicorn.svg

<svg xmlns="http://www.w3.org/2000/svg" viewBox="0 0 640 512"><!-- Font Awesome Pro 6.0.0-alpha2 by @fontawesome - https://fontawesome.com License - https://fontawesome.com/license (Commercial License) --><path d="M632.021 32H531.768C537.643 25.875 542.143 18.375 543.893 9.625C544.893 4.625 541.018 0 536.018 0H416.014C345.262 0 288.01 57.25 288.01 128H160.005C131.129 128 105.629 141 88.003 161.125V160C39.501 160 0 199.5 0 248V304C0 312.875 7.125 320 16.001 320H32.001C40.876 320 48.002 312.875 48.002 304V248C48.002 234.75 54.877 223.625 64.752 216.375C64.627 218.875 64.002 221.375 64.002 224C64.002 251.625 75.878 276.375 94.503 293.875L68.739 362.872C64.243 374.912 63.506 388.033 66.627 400.5L88.473 487.771C92.038 502.011 104.835 512 119.515 512H152.502C173.313 512 188.587 492.448 183.551 472.256L162.255 386.875L186.006 323.25L288.135 345.625V480C288.135 497.673 302.462 512 320.135 512H352.138C369.738 512 384.138 497.6 384.138 480V318.25C403.764 298 416.139 270.5 416.139 240C416.139 239.75 416.014 239.625 416.014 239.375V136.875L432.014 144L450.89 181.75C458.345 196.659 476.003 203.339 491.459 197.098L523.893 184C536.055 179.088 544.018 167.285 544.018 154.168V83.25L636.396 46.625C643.022 42.25 639.896 32 632.021 32ZM480.016 96C471.141 96 464.016 88.875 464.016 80S471.141 64 480.016 64C488.891 64 496.017 71.125 496.017 80S488.891 96 480.016 96Z"/></svg>

<svg xmlns="http://www.w3.org/2000/svg" viewBox="0 0 640 512"><!-- Font Awesome Pro 5.15.1 by @fontawesome - https://fontawesome.com License - https://fontawesome.com/license (Commercial License) --><path d="M631.98 32H531.73c5.93-6.14 10.4-13.63 12.18-22.36 1.01-4.96-2.88-9.64-7.94-9.64H416c-70.69 0-128 57.31-128 128H160c-28.84 0-54.4 12.98-72 33.11V160c-48.53 0-88 39.47-88 88v56c0 8.84 7.16 16 16 16h16c8.84 0 16-7.16 16-16v-56c0-13.22 6.87-24.39 16.78-31.68-.21 2.58-.78 5.05-.78 7.68 0 27.64 11.84 52.36 30.54 69.88l-25.72 68.6a63.945 63.945 0 0 0-2.16 37.99l24.85 99.41A15.982 15.982 0 0 0 107.02 512h65.96c10.41 0 18.05-9.78 15.52-19.88l-26.31-105.26 23.84-63.59 102.04 22.33V496c0 8.84 7.16 16 16 16h64c8.84 0 16-7.16 16-16V318.22c19.74-20.19 32-47.75 32-78.22 0-.22-.07-.42-.08-.64V136.89l16 7.11 18.9 37.7c7.45 14.87 25.05 21.55 40.49 15.37l32.55-13.02a31.997 31.997 0 0 0 20.12-29.74L544 83.3l92.42-36.65c6.59-4.38 3.48-14.65-4.44-14.65zM480 96c-8.84 0-16-7.16-16-16s7.16-16 16-16 16 7.16 16 16-7.16 16-16 16z"/></svg>
